icons/tasklist-24.svg

<svg width="24" height="24" viewBox="0 0 24 24" fill="none" xmlns="http://www.w3.org/2000/svg">
<path fill-rule="evenodd" clip-rule="evenodd" d="M3 6C3 5.44772 3.44772 5 4 5H9C9.55228 5 10 5.44772 10 6V11C10 11.5523 9.55228 12 9 12H4C3.44772 12 3 11.5523 3 11V6ZM4.5 10.5V6.5H8.5V10.5H4.5Z" fill="#24292F"/>
<path d="M12.75 5.5C12.3358 5.5 12 5.83579 12 6.25C12 6.66421 12.3358 7 12.75 7H20.25C20.6642 7 21 6.66421 21 6.25C21 5.83579 20.6642 5.5 20.25 5.5H12.75Z" fill="#24292F"/>
<path d="M12.75 11.5C12.3358 11.5 12 11.8358 12 12.25C12 12.6642 12.3358 13 12.75 13H20.25C20.6642 13 21 12.6642 21 12.25C21 11.8358 20.6642 11.5 20.25 11.5H12.75Z" fill="#24292F"/>
<path d="M12.75 17.5C12.3358 17.5 12 17.8358 12 18.25C12 18.6642 12.3358 19 12.75 19H20.25C20.6642 19 21 18.6642 21 18.25C21 17.8358 20.6642 17.5 20.25 17.5H12.75Z" fill="#24292F"/>
<path d="M9.78033 14.9697C10.0732 15.2626 10.0732 15.7374 9.78033 16.0303L6.28033 19.5303C5.98744 19.8232 5.51256 19.8232 5.21967 19.5303L3.21967 17.5303C2.92678 17.2374 2.92678 16.7626 3.21967 16.4697C3.51256 16.1768 3.98744 16.1768 4.28033 16.4697L5.75 17.9393L8.71967 14.9697C9.01256 14.6768 9.48744 14.6768 9.78033 14.9697Z" fill="#24292F"/>
</svg>

<svg xmlns="http://www.w3.org/2000/svg" width="24" height="24" viewBox="0 0 24 24"><path fill-rule="evenodd" d="M3 6a1 1 0 011-1h5a1 1 0 011 1v5a1 1 0 01-1 1H4a1 1 0 01-1-1V6zm1.5 4.5v-4h4v4h-4z"/><path d="M12.75 5.5a.75.75 0 000 1.5h7.5a.75.75 0 000-1.5h-7.5zm0 6a.75.75 0 000 1.5h7.5a.75.75 0 000-1.5h-7.5zm0 6a.75.75 0 000 1.5h7.5a.75.75 0 000-1.5h-7.5zm-2.97-2.53a.75.75 0 010 1.06l-3.5 3.5a.75.75 0 01-1.06 0l-2-2a.75.75 0 111.06-1.06l1.47 1.47 2.97-2.97a.75.75 0 011.06 0z"/></svg>
